X: 0044
T: L\aangdans efter D\"od Erik Andersson
%R: polska
B: Paul B\"ackstr\"om's "L\aatar fr\aan Dalarna" collection" 1974
Z: 2022 John Chambers <jc:trillian.mit.edu>
M: 3/4
L: 1/8
Q: 1/4=132
N: S.L.
K: Ddor
% - - - - - - - - - -
|: [AA,]>(e f2) fa | ((3a/b/a/)(g e2) (g<e) | fd e2 ^c2 | .^cd [d4D4] :|
|: vA>^c- cd d>(e | f)(e/d/) "^*"^c2 c2 | A^c d2 cd | ef T[e4A4] d/e/ :|
|: vA>(e f2){gf} fa | ((3a/b/a/)g e2 (ge) | fd e2 ^c2 | (e<g) a4 |
   vA>(e f2){gf} fa | ((3a/b/a/)g e2 (ge) | fd e2 ^c2 | ^cd d4 :|
% - - - - - - - - - -
%%text * These ^c notes both have small e and A notes on their stems.

%%sep 2 1 500
%%sep 1 1 500

